lib/flags/m/410.svg

<svg xmlns="http://www.w3.org/2000/svg" fill="none" viewBox="0 0 20 15"><mask id="410_svg__a" width="20" height="15" x="0" y="0" mask-type="alpha" maskUnits="userSpaceOnUse"><path fill="#fff" d="M0 0H20V15H0z"/></mask><g mask="url(#410_svg__a)"><path fill="#F7FCFF" fill-rule="evenodd" d="M0 0V15H20V0H0Z" clip-rule="evenodd"/><mask id="410_svg__b" width="20" height="15" x="0" y="0" mask-type="alpha" maskUnits="userSpaceOnUse"><path fill="#fff" fill-rule="evenodd" d="M0 0V15H20V0H0Z" clip-rule="evenodd"/></mask><g mask="url(#410_svg__b)"><path fill="#3D58DB" fill-rule="evenodd" d="M9.99998 11.3873C12.0017 11.3873 13.6244 9.66396 13.6244 7.53817C13.6244 5.41238 12.0017 3.68909 9.99998 3.68909C7.99828 3.68909 6.37558 5.41238 6.37558 7.53817C6.37558 9.66396 7.99828 11.3873 9.99998 11.3873Z" clip-rule="evenodd"/><mask id="410_svg__c" width="8" height="9" x="6" y="3" mask-type="alpha" maskUnits="userSpaceOnUse"><path fill="#fff" fill-rule="evenodd" d="M9.99998 11.3873C12.0017 11.3873 13.6244 9.66396 13.6244 7.53817C13.6244 5.41238 12.0017 3.68909 9.99998 3.68909C7.99828 3.68909 6.37558 5.41238 6.37558 7.53817C6.37558 9.66396 7.99828 11.3873 9.99998 11.3873Z" clip-rule="evenodd"/></mask><g mask="url(#410_svg__c)"><path fill="#E31D1C" fill-rule="evenodd" d="M13.7512 7.83306C13.7512 7.83306 13.5477 6.01809 12.0411 5.91957C10.5344 5.82104 10.1281 7.25056 10.0412 7.62929C9.95426 8.00802 9.73421 9.01834 8.14786 9.01834C6.56152 9.01834 6.41843 6.44932 6.41843 6.44932V3.42004H13.7512V7.83306Z" clip-rule="evenodd"/></g><path fill="#272727" fill-rule="evenodd" d="M4.56209 1.28271 5.13394 1.79992 2.48378 4.89486 1.91193 4.37766 4.56209 1.28271zM5.50521 2.11969 6.07706 2.63689 3.52189 5.687 2.95004 5.16979 5.50521 2.11969zM7.01586 3.48418 6.44401 2.96697 3.88174 6.04023 4.45359 6.55743 7.01586 3.48418zM15.8523 1.0658 15.2804 1.58106 16.2725 2.74534 16.8445 2.23007 15.8523 1.0658zM17.6158 3.20744 17.0439 3.72271 18.036 4.88698 18.608 4.37172 17.6158 3.20744zM13.3925 3.25806 13.9645 2.74279 14.9566 3.90706 14.3846 4.42233 13.3925 3.25806zM15.728 4.88444 15.156 5.39971 16.1481 6.56398 16.7201 6.04871 15.728 4.88444zM14.3722 2.39455 14.9442 1.87928 17.7058 5.24232 17.1338 5.75759 14.3722 2.39455zM16.2843 8.90204 15.7075 8.38477 14.707 9.55358 15.2838 10.0709 16.2843 8.90204zM14.6022 10.9589 14.0255 10.4416 13.025 11.6105 13.6018 12.1277 14.6022 10.9589zM17.529 10.0206 18.1058 10.5379 17.1053 11.7067 16.5285 11.1894 17.529 10.0206zM16.506 12.6425 15.9292 12.1252 14.9287 13.294 15.5055 13.8113 16.506 12.6425zM14.9791 11.2364 15.5558 11.7537 14.5115 13.0017 13.9347 12.4845 14.9791 11.2364zM17.2692 9.67399 16.6925 9.15672 15.6481 10.4048 16.2249 10.9221 17.2692 9.67399zM4.00409 9.30624 4.5761 8.79041 7.12897 11.7157 6.55696 12.2315 4.00409 9.30624zM4.59959 11.8648 5.17159 11.3489 6.24991 12.5337 5.67791 13.0495 4.59959 11.8648zM2.69338 10.4318 2.12138 10.9476 4.6875 13.9123 5.25951 13.3964 2.69338 10.4318zM3.10037 10.0952 3.67237 9.57935 4.60717 10.6755 4.03516 11.1914 3.10037 10.0952z" clip-rule="evenodd"/></g></g></svg>

<svg xmlns="http://www.w3.org/2000/svg" fill="none" viewBox="0 0 20 15"><g mask="url(#410_svg__KR_-_Korea_(South)"><path fill="#F7FCFF" fill-rule="evenodd" d="M0 0v15h20V0H0z" clip-rule="evenodd"/><g mask="url(#410_svg__KR_-_Korea_(South)"><path fill="#3D58DB" fill-rule="evenodd" d="M10 11.387c2.002 0 3.624-1.723 3.624-3.849 0-2.126-1.622-3.849-3.624-3.849s-3.624 1.723-3.624 3.85c0 2.125 1.622 3.848 3.624 3.848z" clip-rule="evenodd"/><g mask="url(#410_svg__KR_-_Korea_(South)"><path fill="#E31D1C" fill-rule="evenodd" d="M13.751 7.833s-.203-1.815-1.71-1.914c-1.507-.098-1.913 1.331-2 1.71-.087.379-.307 1.39-1.893 1.39s-1.73-2.57-1.73-2.57V3.42h7.333v4.414z" clip-rule="evenodd"/></g><path fill="#272727" fill-rule="evenodd" d="M4.562 1.283l.572.517-2.65 3.095-.572-.517 2.65-3.095zm.943.837l.572.517-2.555 3.05-.572-.517 2.555-3.05zm1.51 1.364l-.571-.517L3.882 6.04l.572.517 2.562-3.073zm8.837-2.418l-.572.515.993 1.164.572-.515-.993-1.164zm1.764 2.141l-.572.516.992 1.164.572-.515-.992-1.165zm-4.223.051l.571-.515.993 1.164-.572.515-.992-1.164zm2.335 1.626l-.572.516.992 1.164.572-.515-.992-1.165zm-1.356-2.49l.572-.515 2.762 3.363-.572.516-2.762-3.364zm1.912 6.508l-.576-.517-1.001 1.168.577.518 1-1.17zm-1.682 2.057l-.577-.517-1 1.168.577.518 1-1.17zm2.927-.938l.577.517-1 1.169-.578-.518 1.001-1.168zm-1.023 2.621l-.577-.517-1 1.169.576.517 1.001-1.169zm-1.527-1.406l.577.518-1.044 1.248-.577-.518 1.044-1.248zm2.29-1.562l-.576-.517-1.045 1.248.577.517 1.044-1.248zM4.004 9.306l.572-.516 2.553 2.926-.572.515-2.553-2.925zm.596 2.559l.572-.516 1.078 1.185-.572.515L4.6 11.865zm-1.907-1.433l-.572.516 2.567 2.964.572-.516-2.567-2.964zm.407-.337l.572-.516.935 1.096-.572.516-.935-1.096z" clip-rule="evenodd"/></g></g></svg>
